X:365
T: Cobbler (The)
S: "Music of Ireland - The Big Session" (DJ Taylor)
Z: B.Black
L: 1/8
M: 2/4
R: polka
K: Ador
cA aA|cc e/g/e/d/|cA aA|B/A/G/B/ de/d/|
cA aA|cd e/g/e/d/|cd e/d/c|A2 A2 :|
g/e/e/e/ ae|ed e/g/e/d/|cA aA|B/A/G/B/ de/d/|
ed/e/ ag|ed e/g/e/d/|cd e/d/c|A2 A2 :|

